Obsidian-SemiLight/actions/24s/format-border-style.svg

<svg viewBox="0 0 24 24" xmlns="http://www.w3.org/2000/svg"><path d="m12.996094 4.0019531-7.3261721 7.3261719-.0019531-.003906-1.4140626 1.414062.0019532.003907-.25.25h-.0058594v4.007812h1 2 1.0078125l.2519531-.251953.3535156-.353516.7070313-.707031.3554687-.353516 7.3222658-7.3300778-3.998047-4zm-.583985 1.9960938 2.587891 2.5898437-4.267578 4.2675784-2.5878908-2.589844zm-4.974609 4.9746091 2.587891 2.589844-.7070316.707031-2.5898438-2.589843.2734375-.271485zm-1.4160156 1.414063 2.5898437 2.589843.0039063.001954-.7070313.707031-.0039062-.001953-2.5898438-2.589844zm-2.0214844 6.613281v1h16v-1z" fill="#4d4d4d"/></svg>

<svg xmlns="http://www.w3.org/2000/svg" viewBox="0 0 24 24">
  <defs id="defs3051">
    <style type="text/css" id="current-color-scheme">
      .ColorScheme-Text {
        color:#4d4d4d;
      }
      </style>
  </defs>
 <path style="fill:currentColor;fill-opacity:1;stroke:none" 
     d="M 12.996094 4.0019531 L 5.6699219 11.328125 L 5.6679688 11.324219 L 4.2539062 12.738281 L 4.2558594 12.742188 L 4.0058594 12.992188 L 4 12.992188 L 4 17 L 5 17 L 7 17 L 8.0078125 17 L 8.2597656 16.748047 L 8.6132812 16.394531 L 9.3203125 15.6875 L 9.6757812 15.333984 L 16.998047 8.0039062 L 13 4.0039062 L 12.996094 4.0019531 z M 12.412109 5.9980469 L 15 8.5878906 L 10.732422 12.855469 L 8.1445312 10.265625 L 12.412109 5.9980469 z M 7.4375 10.972656 L 10.025391 13.5625 L 9.3183594 14.269531 L 6.7285156 11.679688 L 7.0019531 11.408203 L 7.4375 10.972656 z M 6.0214844 12.386719 L 8.6113281 14.976562 L 8.6152344 14.978516 L 7.9082031 15.685547 L 7.9042969 15.683594 L 5.3144531 13.09375 L 6.0214844 12.386719 z M 4 19 L 4 20 L 20 20 L 20 19 L 4 19 z "
     class="ColorScheme-Text"
     />
</svg>
